X:235
T: Der Hammerschmiedssohn
N: Q0088F
O: Mitteleuropa, Deutschland / Frankreich, Lothringen, Baumbiedersdorf
R: Ballade, Verfuehrung, Schwangerschaft, Mord
M: 2/4
L: 1/16
K: F
C2 | F3FF4 | G4G2A2 | B2c2B2A2 | G4z2
GA | B4B2A2 | G6A2 | F3FF2D2 | D4z2
G2 | G4G4 | F4B3B | A3AG2E2 | F4z2

